X:283
T:Our God, Our Help In Ages Past
%%stretchlast false
M:4/4
L:1/4
K:Bb clef=C1
"^I"[B,DBf] [B,FBd] "^IV"[EGBg] "^I¹"[DBf] | "^vi"[GBdb] "^ii7¹"[EGcb] "^V"[Fca] "^I"[B,Fdb] | [B,Bdf] "^vi"[G,Bdb] "^iii"[DAdf] "^vi¹"[B,Gdg] | "^V/V"[CGc=e] "^V"[F,Acf]3 | [Fca] "^I"[B,Fdb] "^IV"[EGBg] "^ii"[CGec'] | "^V"[Fca] "^I"[B,Fdb] "^IV7"[EGdg]/ "^ii¹"[EGcg]/ "^III"[D_GAa] | "^I¹"[DFBf] "^ii"[CEeg] "^I"[B,Fdb] "^ii¹"[EGcc'] | "^V"[Fca] "^I"[B,Fdb]3 |]
